src/section/s5/horizon.svg

<svg width="1289" height="19" viewBox="0 0 1289 19" fill="none" xmlns="http://www.w3.org/2000/svg">
<g style="mix-blend-mode:multiply" opacity="0.6">
<path d="M2.05 2.27999V8.32999H9.52V10.38H2.05V18.46H0V0.23999H10.66V2.27999H2.05Z" fill="#A2C7F3"/>
<path d="M35.3 0.280029H37.35V18.43H35.3V0.280029Z" fill="#A2C7F3"/>
<path d="M74.58 2.31003H69.32V18.44H67.27V2.31003H61.99V0.280029H74.58V2.31003Z" fill="#A2C7F3"/>
<path d="M97.59 0.280029H99.79L103.73 13.53L108.17 1.75003H108.33L112.74 13.53L116.68 0.280029H118.89L113.26 18.54H112.94L108.22 6.50003L103.52 18.54H103.22L97.59 0.280029Z" fill="#A2C7F3"/>
<path d="M145.29 2.30003V8.04003H152.76V10.09H145.29V16.4H153.9V18.44H143.24V0.280029H153.9V2.30003H145.29Z" fill="#A2C7F3"/>
<path d="M190.25 16.4V18.44H179.3V0.280029H181.35V16.39H190.25V16.4Z" fill="#A2C7F3"/>
<path d="M257.08 0.280029V18.43H255.04V10.36H245.84V18.43H243.79V0.280029H245.84V8.33003H255.04V0.280029H257.08Z" fill="#A2C7F3"/>
<path d="M285.11 2.30003V8.04003H292.58V10.09H285.11V16.4H293.72V18.44H283.06V0.280029H293.72V2.30003H285.11Z" fill="#A2C7F3"/>
<path d="M330.96 15.45H321.05L319.72 18.43H317.5L325.89 0H326.11L334.51 18.43H332.28L330.95 15.45H330.96ZM330.17 13.67L326.01 4.33L321.84 13.67H330.16H330.17Z" fill="#A2C7F3"/>
<path d="M369.81 16.4V18.44H358.86V0.280029H360.91V16.39H369.81V16.4Z" fill="#A2C7F3"/>
<path d="M402.32 2.31003H397.06V18.44H395.01V2.31003H389.73V0.280029H402.32V2.31003Z" fill="#A2C7F3"/>
<path d="M440.25 0.280029V18.43H438.21V10.36H429.01V18.43H426.96V0.280029H429.01V8.33003H438.21V0.280029H440.25Z" fill="#A2C7F3"/>
<path d="M471.01 10.72L464.6 0.280029H466.9L472.03 8.43003L477.17 0.280029H479.48L473.05 10.72V18.43H471.01V10.72Z" fill="#A2C7F3"/>
<path d="M545.19 12.89C545.19 15.76 542.92 18.43 539.45 18.43H532.73V0.280029H537.69C540.72 0.280029 542.9 2.42003 542.9 4.81003C542.9 6.78003 541.47 8.21003 540.55 8.21003C542.88 8.21003 545.2 10.16 545.2 12.89H545.19ZM534.77 2.28003V7.78003H537.79C539.76 7.79003 540.98 6.59003 540.98 5.05003C540.98 3.51003 539.53 2.28003 537.8 2.28003H534.77ZM543.19 12.76C543.19 11.06 541.58 9.58003 539.18 9.60003H534.77V16.43H539.29C541.36 16.43 543.2 14.87 543.2 12.76H543.19Z" fill="#A2C7F3"/>
<path d="M569.64 11.38V0.280029H571.7V11.37C571.7 14.42 573.68 16.64 576.36 16.64C579.04 16.64 581.02 14.41 581.02 11.37V0.280029H583.08V11.38C583.08 15.61 580.22 18.71 576.36 18.71C572.5 18.71 569.64 15.61 569.64 11.38Z" fill="#A2C7F3"/>
<path d="M608.87 0.280029H610.92V18.43H608.87V0.280029Z" fill="#A2C7F3"/>
<path d="M647.84 16.4V18.44H636.89V0.280029H638.94V16.39H647.84V16.4Z" fill="#A2C7F3"/>
<path d="M686.79 9.37005C686.79 14.9101 683.19 18.4401 677.53 18.4401H672.47V0.28005H677.53C683.18 0.27005 686.79 3.80005 686.79 9.37005ZM684.73 9.37005C684.73 5.08005 681.91 2.31005 677.52 2.31005H674.52V16.39H677.55C681.92 16.39 684.72 13.6401 684.72 9.37005H684.73Z" fill="#A2C7F3"/>
<path d="M711.82 0.280029H713.87V18.43H711.82V0.280029Z" fill="#A2C7F3"/>
<path d="M754.44 0.24V18.72H754.34L741.9 4.9V18.46H739.85V0H739.96L752.39 13.81V0.24H754.44Z" fill="#A2C7F3"/>
<path d="M797.46 10.11C797.46 15.2 793.54 18.68 788.86 18.68C783.65 18.68 779.46 14.49 779.46 9.37003C779.46 4.25003 783.66 0.0300293 788.78 0.0300293C791.01 0.0400293 793.72 1.17003 795.36 2.75003L794.21 4.45003C792.8 3.05003 790.6 2.07003 788.77 2.07003C784.94 2.07003 781.54 5.24003 781.54 9.36003C781.54 13.48 784.75 16.6 788.94 16.6C792.49 16.6 795.28 14.22 795.28 11.01C795.28 10.88 795.28 10.75 795.27 10.65H788.76V8.80003H797.39C797.42 9.09003 797.47 9.58003 797.47 10.09L797.46 10.11Z" fill="#A2C7F3"/>
<path d="M850.43 9.37002C850.43 4.27002 854.66 0.0200195 859.75 0.0200195C862.08 0.0400195 864.34 1.11002 865.99 2.77002L864.8 4.38002C863.49 3.04002 861.67 2.11002 859.68 2.11002C856.03 2.11002 852.51 5.26002 852.51 9.37002C852.51 13.48 856 16.61 859.72 16.61C861.77 16.61 863.52 15.64 864.82 14.36L866 16C864.49 17.5 862.45 18.67 859.77 18.67C854.73 18.67 850.43 14.51 850.43 9.37002Z" fill="#A2C7F3"/>
<path d="M892.68 2.30003V8.04003H900.15V10.09H892.68V16.4H901.29V18.44H890.63V0.280029H901.29V2.30003H892.68Z" fill="#A2C7F3"/>
<path d="M937.22 18.43L932.15 11.35H928.76V18.43H926.71V0.280029H932.06C935.43 0.280029 938.18 2.87003 938.18 6.07003C938.18 8.42003 936.57 10.45 934.36 11.11L939.75 18.43H937.22ZM932.13 9.63003C934.29 9.63003 936.07 7.99003 936.07 6.03003C936.07 3.94003 934.27 2.31003 932.13 2.31003H928.75V9.62003H932.13V9.63003Z" fill="#A2C7F3"/>
<path d="M974.81 2.31003H969.55V18.44H967.5V2.31003H962.22V0.280029H974.81V2.31003Z" fill="#A2C7F3"/>
<path d="M999.45 0.280029H1001.5V18.43H999.45V0.280029Z" fill="#A2C7F3"/>
<path d="M1029.52 2.27999V8.32999H1036.99V10.38H1029.52V18.46H1027.47V0.23999H1038.13V2.27999H1029.52Z" fill="#A2C7F3"/>
<path d="M1062.77 0.280029H1064.82V18.43H1062.77V0.280029Z" fill="#A2C7F3"/>
<path d="M1089.84 9.37002C1089.84 4.27002 1094.07 0.0200195 1099.16 0.0200195C1101.49 0.0400195 1103.75 1.11002 1105.4 2.77002L1104.21 4.38002C1102.9 3.04002 1101.08 2.11002 1099.09 2.11002C1095.44 2.11002 1091.92 5.26002 1091.92 9.37002C1091.92 13.48 1095.41 16.61 1099.13 16.61C1101.18 16.61 1102.93 15.64 1104.23 14.36L1105.41 16C1103.9 17.5 1101.86 18.67 1099.18 18.67C1094.14 18.67 1089.84 14.51 1089.84 9.37002Z" fill="#A2C7F3"/>
<path d="M1141.88 15.45H1131.97L1130.64 18.43H1128.42L1136.81 0H1137.03L1145.43 18.43H1143.2L1141.87 15.45H1141.88ZM1141.09 13.67L1136.93 4.33L1132.76 13.67H1141.08H1141.09Z" fill="#A2C7F3"/>
<path d="M1178.78 2.31003H1173.52V18.44H1171.47V2.31003H1166.19V0.280029H1178.78V2.31003Z" fill="#A2C7F3"/>
<path d="M1203.42 0.280029H1205.47V18.43H1203.42V0.280029Z" fill="#A2C7F3"/>
<path d="M1230.49 9.37002C1230.49 4.22002 1234.69 0.0200195 1239.81 0.0200195C1244.93 0.0200195 1249.14 4.22002 1249.14 9.37002C1249.14 14.52 1244.94 18.67 1239.79 18.67C1234.64 18.67 1230.48 14.48 1230.48 9.37002H1230.49ZM1247.07 9.36002C1247.07 5.36002 1243.8 2.09002 1239.79 2.09002C1235.78 2.09002 1232.55 5.37002 1232.55 9.36002C1232.55 13.35 1235.8 16.6 1239.79 16.6C1243.78 16.6 1247.07 13.35 1247.07 9.36002Z" fill="#A2C7F3"/>
<path d="M1288.76 0.24V18.72H1288.66L1276.22 4.9V18.46H1274.17V0H1274.28L1286.71 13.81V0.24H1288.76Z" fill="#A2C7F3"/>
</g>
</svg>

<svg xmlns="http://www.w3.org/2000/svg" fill="#A2C7F3" viewBox="0 0 1289 19">
<path d="M2,2.3v6.1h7.5v2.1H2v8.1H0V0.2h10.7v2H2z M35.3,0.3h2v18.1h-2V0.3z M74.6,2.3h-5.3v16.1h-2.1V2.3H62v-2h12.6
	V2.3z M97.6,0.3h2.2l3.9,13.2l4.4-11.8h0.2l4.4,11.8l3.9-13.2h2.2l-5.6,18.3h-0.3l-4.7-12l-4.7,12h-0.3L97.6,0.3z M145.3,2.3V8h7.5
	v2h-7.5v6.3h8.6v2h-10.7V0.3h10.7v2H145.3z M190.2,16.4v2h-10.9V0.3h2.1v16.1L190.2,16.4L190.2,16.4z M257.1,0.3v18.1h-2v-8.1h-9.2
	v8.1h-2.1V0.3h2.1v8.1h9.2V0.3H257.1z M285.1,2.3V8h7.5v2h-7.5v6.3h8.6v2h-10.7V0.3h10.7v2H285.1z M369.8,16.4v2h-11V0.3h2.1v16.1
	L369.8,16.4L369.8,16.4z M402.3,2.3h-5.3v16.1h-2V2.3h-5.3v-2h12.6V2.3z M440.2,0.3v18.1h-2v-8.1H429v8.1H427V0.3h2.1v8.1h9.2V0.3
	H440.2z M471,10.7l-6.4-10.4h2.3l5.1,8.2l5.1-8.2h2.3L473,10.7v7.7h-2V10.7z M539.5,18.4h-6.7V0.3h5c5.5,0,7.1,6.8,2.9,7.9
	C546.5,8.2,547.1,18.4,539.5,18.4z M534.8,2.3v5.5h3c4.3,0.1,4-5.6,0-5.5H534.8z M539.2,9.6h-4.4v6.8h4.5
	C544.5,16.3,544.4,9.5,539.2,9.6z M569.6,11.4V0.3h2.1v11.1c0,6.7,9.3,6.7,9.3,0V0.3h2.1v11.1C583.1,20.8,569.6,20.8,569.6,11.4z
	 M608.9,0.3h2v18.1h-2V0.3z M647.8,16.4v2h-11V0.3h2v16.1L647.8,16.4L647.8,16.4z M677.5,18.4h-5.1V0.3l5.1,0
	C689.9,0.3,689.9,18.4,677.5,18.4z M677.5,2.3l-3,0v14.1h3C687.1,16.4,687.1,2.3,677.5,2.3z M711.8,0.3h2v18.1h-2V0.3z M752.4,13.8
	V0.2h2l-0.1,18.5L741.9,4.9v13.6h-2.1V0L752.4,13.8z M797.5,8.8c0,14.1-18.4,11.8-18,0.6c-0.2-8.1,10.2-12.4,15.9-6.6l-1.1,1.7
	c-4.4-4.7-12.7-1.8-12.7,4.9c-0.7,8.4,13.9,10,13.7,1.3h-6.5V8.8H797.5z M850.4,9.4c-0.2-7.9,10.1-12.6,15.6-6.6l-1.2,1.6
	c-4.1-4.7-12.3-1.5-12.3,5c-0.1,6.5,8.2,9.6,12.3,5L866,16C860.9,21.8,850.1,17.3,850.4,9.4z M892.7,2.3V8h7.5v2h-7.5v6.3h8.6v2
	h-10.7V0.3h10.7v2H892.7z M937.2,18.4l-5.1-7.1h-3.4v7.1h-2V0.3h5.3c6.4-0.3,8.5,9,2.3,10.8l5.4,7.3H937.2z M932.1,9.6
	c5.2,0.1,5-7.4,0-7.3h-3.4v7.3L932.1,9.6L932.1,9.6z M974.8,2.3h-5.3v16.1h-2V2.3h-5.3v-2h12.6V2.3z M999.5,0.3h2v18.1h-2V0.3z
	 M1029.5,2.3v6.1h7.5v2.1h-7.5v8.1h-2.1V0.2h10.7v2H1029.5z M1062.8,0.3h2v18.1h-2V0.3z M1089.8,9.4c-0.2-7.9,10.1-12.6,15.6-6.6
	l-1.2,1.6c-4.1-4.7-12.3-1.5-12.3,5c-0.1,6.5,8.2,9.6,12.3,5l1.2,1.6C1100.3,21.8,1089.5,17.3,1089.8,9.4z M1136.9,0l8.5,18.4h-2.2
	l-1.3-3h-9.9l-1.3,3h-2.2L1136.9,0z M1141.1,13.7l-4.2-9.3l-4.2,9.3H1141.1z M326,0l8.5,18.4h-2.2l-1.3-3H321l-1.3,3h-2.2L326,0z
	 M330.2,13.7L326,4.3l-4.2,9.3H330.2z M1178.8,2.3h-5.3v16.1h-2.1V2.3h-5.3v-2h12.6V2.3z M1203.4,0.3h2v18.1h-2V0.3z M1239.8,0
	c12.4,0,12.4,18.6,0,18.6C1227.3,18.7,1227.4,0,1239.8,0z M1239.8,2.1c-9.7,0-9.7,14.5,0,14.5S1249.5,2.1,1239.8,2.1z M1286.7,13.8
	V0.2h2.1v18.5l-12.5-13.8v13.6h-2V0L1286.7,13.8z"/>
</svg>
